resources/haticons/SVG/format_align_center.svg

<!-- Generated by IcoMoon.io -->
<svg version="1.1" xmlns="http://www.w3.org/2000/svg" width="24" height="24" viewBox="0 0 24 24">
<title>format_align_center</title>
<path d="M3 3h18v2.016h-18v-2.016zM6.984 6.984h10.031v2.016h-10.031v-2.016zM3 12.984v-1.969h18v1.969h-18zM3 21v-2.016h18v2.016h-18zM6.984 15h10.031v2.016h-10.031v-2.016z"></path>
</svg>

<svg xmlns="http://www.w3.org/2000/svg" width="24" height="24"><path d="M3 3h18v2.016H3V3zm3.984 3.984h10.031V9H6.984V6.984zm-3.984 6v-1.969h18v1.969H3zM3 21v-2.016h18V21H3zm3.984-6h10.031v2.016H6.984V15z"/></svg>
